; G-Code generated by Simplify3D(R) Version 3.0.2
; giu 1, 2016 at 1:30:42 
; Settings Summary
;   processName,Process1
;   applyToModels,carrello,carrello(2),carrello(3),carrello(4),carrello(5),carrello(6),carrello(7),carrello(8)
;   profileName,X400 Inova ABS
;   profileVersion,2016-05-30 16:10:54
;   baseProfile,German RepRap X400 (modified)
;   printMaterial,ABS
;   printQuality,Medium
;   printExtruders,
;   extruderName,Primary Extruder,Secondary Extruder
;   extruderToolheadNumber,0,1
;   extruderDiameter,0.5,0.3
;   extruderAutoWidth,1,1
;   extruderWidth,0.6,0.36
;   extrusionMultiplier,1,1
;   extruderUseRetract,1,1
;   extruderRetractionDistance,2.6,2.6
;   extruderExtraRestartDistance,0,0
;   extruderRetractionZLift,0,0
;   extruderRetractionSpeed,6000,6000
;   extruderUseCoasting,0,0
;   extruderCoastingDistance,0.2,0.2
;   extruderUseWipe,0,0
;   extruderWipeDistance,5,5
;   primaryExtruder,0
;   layerHeight,0.2
;   topSolidLayers,4
;   bottomSolidLayers,3
;   perimeterOutlines,2
;   printPerimetersInsideOut,1
;   startPointOption,2
;   startPointOriginX,0
;   startPointOriginY,0
;   startPointOriginZ,300
;   sequentialIslands,0
;   spiralVaseMode,0
;   firstLayerHeightPercentage,100
;   firstLayerWidthPercentage,150
;   firstLayerUnderspeed,0.6
;   useRaft,0
;   raftExtruder,-1
;   raftLayers,3
;   raftOffset,3
;   raftSeparationDistance,0.1
;   raftInfill,85
;   disableRaftBaseLayers,0
;   useSkirt,1
;   skirtExtruder,0
;   skirtLayers,1
;   skirtOutlines,6
;   skirtOffset,0
;   usePrimePillar,0
;   primePillarExtruder,999
;   primePillarWidth,12
;   primePillarLocation,7
;   primePillarSpeedMultiplier,1
;   useOozeShield,0
;   oozeShieldExtruder,999
;   oozeShieldOffset,2
;   oozeShieldOutlines,1
;   oozeShieldSidewallShape,1
;   oozeShieldSidewallAngle,30
;   oozeShieldSpeedMultiplier,1
;   infillExtruder,0
;   internalInfillPattern,Rectilinear
;   externalInfillPattern,Rectilinear
;   infillPercentage,30
;   outlineOverlapPercentage,30
;   infillExtrusionWidthPercentage,140
;   minInfillLength,3
;   infillLayerInterval,1
;   infillAngles,45,-45
;   overlapInfillAngles,0
;   generateSupport,0
;   supportExtruder,0
;   supportInfillPercentage,30
;   supportExtraInflation,1
;   denseSupportLayers,0
;   denseSupportInfillPercentage,70
;   supportLayerInterval,1
;   supportHorizontalPartOffset,0.6
;   supportUpperSeparationLayers,1
;   supportLowerSeparationLayers,1
;   supportType,1
;   supportGridSpacing,4
;   maxOverhangAngle,70
;   supportAngles,45
;   temperatureName,Primary Extruder
;   temperatureNumber,4
;   temperatureSetpointCount,1
;   temperatureSetpointLayers,1
;   temperatureSetpointTemperatures,190
;   temperatureStabilizeAtStartup,0
;   temperatureHeatedBed,0
;   temperatureRelayBetweenLayers,0
;   temperatureRelayBetweenLoops,0
;   fanLayers,1
;   fanSpeeds,0
;   blipFanToFullPower,0
;   adjustSpeedForCooling,1
;   minSpeedLayerTime,15
;   minCoolingSpeedSlowdown,20
;   increaseFanForCooling,0
;   minFanLayerTime,45
;   maxCoolingFanSpeed,100
;   increaseFanForBridging,0
;   bridgingFanSpeed,100
;   use5D,1
;   relativeEdistances,0
;   allowEaxisZeroing,1
;   independentExtruderAxes,0
;   includeM10123,0
;   stickySupport,1
;   applyToolheadOffsets,0
;   gcodeXoffset,0
;   gcodeYoffset,0
;   gcodeZoffset,0
;   overrideMachineDefinition,1
;   machineTypeOverride,0
;   strokeXoverride,360
;   strokeYoverride,400
;   strokeZoverride,330
;   originOffsetXoverride,0
;   originOffsetYoverride,0
;   originOffsetZoverride,0
;   homeXdirOverride,-1
;   homeYdirOverride,-1
;   homeZdirOverride,-1
;   flipXoverride,-1
;   flipYoverride,1
;   flipZoverride,1
;   toolheadOffsets,0,0|0,0|0,0|0,0|0,0|0,0
;   overrideFirmwareConfiguration,1
;   firmwareTypeOverride,RepRap (Marlin/Repetier/Sprinter)
;   GPXconfigOverride,r2
;   baudRateOverride,250000
;   overridePrinterModels,1
;   printerModelsOverride
;   startingGcode,G28 ; home all axes
;   layerChangeGcode,
;   retractionGcode,
;   toolChangeGcode,
;   endingGcode,G28 X0 ; home X axis,G28 Y0 ; home Y axis,M104 S0 ; turn off extruder,M140 S0 ; turn off bed,M106 S0 ; turn off fan,M84 ; disable motors
;   createX3G,0
;   celebration,0
;   celebrationSong,Random Song
;   createMB5G,0
;   postProcessing,
;   defaultSpeed,2700
;   outlineUnderspeed,0.8
;   solidInfillUnderspeed,0.8
;   supportUnderspeed,0.8
;   rapidXYspeed,10000
;   rapidZspeed,300
;   minBridgingArea,50
;   bridgingExtraInflation,0
;   bridgingExtrusionMultiplier,1.05
;   bridgingSpeedMultiplier,0.8
;   filamentDiameter,3
;   filamentPricePerKg,27
;   filamentDensity,1
;   useMinPrintHeight,0
;   minPrintHeight,0
;   useMaxPrintHeight,0
;   maxPrintHeight,0
;   useDiaphragm,0
;   diaphragmLayerInterval,20
;   robustSlicing,0
;   mergeAllIntoSolid,0
;   onlyRetractWhenCrossingOutline,0
;   retractBetweenLayers,0
;   useRetractionMinTravel,1
;   retractionMinTravel,3
;   retractWhileWiping,0
;   onlyWipeOutlines,1
;   avoidCrossingOutline,0
;   maxMovementDetourFactor,3
;   toolChangeRetractionDistance,12
;   toolChangeExtraRestartDistance,-0.5
;   toolChangeRetractionSpeed,600
;   allowThinWallGapFill,1
;   thinWallAllowedOverlapPercentage,15
;   horizontalSizeCompensation,0
G90
M82
M106 S0
M104 S190 T4
G28 ; home all axes
G92 E0
G1 E-2.6000 F6000
G1 Z0.200 F300
; layer 1, Z = 0.2
T0
; tool H0.200 W0.900
; skirt
G1 X132.828 Y109.070 F10000
G1 E0.0000 F1800
G92 E0
G1 X135.068 Y107.502 E0.0696 F1620
G1 X142.506 Y108.813 E0.2620
G1 X142.675 Y108.852 E0.2664
G1 X145.576 Y109.684 E0.3432
G1 X145.896 Y109.814 E0.3520
G1 X148.639 Y111.272 E0.4311
G1 X148.926 Y111.465 E0.4399
G1 X151.305 Y113.462 E0.5190
G1 X151.546 Y113.711 E0.5278
G1 X153.458 Y116.158 E0.6069
G1 X153.641 Y116.452 E0.6157
G1 X154.964 Y119.164 E0.6926
G1 X155.031 Y119.323 E0.6970
G1 X164.329 Y144.869 E1.3892
G1 X165.249 Y146.673 E1.4408
G1 X166.445 Y148.049 E1.4872
G1 X167.936 Y149.093 E1.5336
G1 X169.638 Y149.747 E1.5800
G1 X171.648 Y149.994 E1.6316
G1 X192.913 Y149.994 E2.1731
G1 X194.846 Y151.927 E2.2427
G1 X194.846 Y157.060 E2.3734
G1 X192.913 Y158.994 E2.4431
G1 X171.345 Y158.994 E2.9923
G1 X171.144 Y158.981 E2.9974
G1 X167.651 Y158.552 E3.0870
G1 X167.259 Y158.454 E3.0973
G1 X163.877 Y157.156 E3.1896
G1 X163.521 Y156.967 E3.1998
G1 X160.556 Y154.891 E3.2920
G1 X160.256 Y154.621 E3.3023
G1 X157.880 Y151.887 E3.3945
G1 X157.654 Y151.552 E3.4048
G1 X156.056 Y148.417 E3.4944
G1 X155.976 Y148.232 E3.4996
G1 X146.678 Y122.686 E4.1918
G1 X145.676 Y120.762 E4.2470
G1 X144.359 Y119.324 E4.2967
G1 X142.714 Y118.276 E4.3464
G1 X140.645 Y117.624 E4.4016
G1 X133.505 Y116.365 E4.5862
G1 X131.937 Y114.126 E4.6559
G1 X132.828 Y109.070 E4.7866
G92 E0
G1 E-2.6000 F6000
G1 X127.793 Y141.376 F10000
G1 E0.0000 F6000
G92 E0
G1 X135.232 Y142.687 E0.1923 F1620
G1 X135.400 Y142.726 E0.1967
G1 X138.301 Y143.558 E0.2736
G1 X138.622 Y143.688 E0.2824
G1 X141.364 Y145.146 E0.3615
G1 X141.651 Y145.339 E0.3703
G1 X144.031 Y147.336 E0.4494
G1 X144.271 Y147.585 E0.4582
G1 X146.183 Y150.032 E0.5373
G1 X146.366 Y150.326 E0.5461
G1 X147.689 Y153.038 E0.6230
G1 X147.757 Y153.197 E0.6274
G1 X157.055 Y178.743 E1.3196
G1 X157.974 Y180.547 E1.3712
G1 X159.170 Y181.923 E1.4176
G1 X160.661 Y182.967 E1.4640
G1 X162.364 Y183.621 E1.5104
G1 X164.373 Y183.868 E1.5620
G1 X185.638 Y183.868 E2.1035
G1 X187.571 Y185.801 E2.1731
G1 X187.571 Y190.935 E2.3038
G1 X185.638 Y192.868 E2.3734
G1 X164.071 Y192.868 E2.9227
G1 X163.869 Y192.855 E2.9278
G1 X160.376 Y192.426 E3.0174
G1 X159.985 Y192.329 E3.0277
G1 X156.602 Y191.030 E3.1199
G1 X156.246 Y190.841 E3.1302
G1 X153.282 Y188.765 E3.2224
G1 X152.982 Y188.495 E3.2327
G1 X150.605 Y185.761 E3.3249
G1 X150.379 Y185.426 E3.3352
G1 X148.782 Y182.291 E3.4248
G1 X148.701 Y182.106 E3.4299
G1 X139.403 Y156.560 E4.1222
G1 X138.402 Y154.636 E4.1774
G1 X137.084 Y153.198 E4.2271
G1 X135.439 Y152.150 E4.2768
G1 X133.371 Y151.498 E4.3320
G1 X126.230 Y150.239 E4.5166
G1 X124.662 Y148.000 E4.5862
G1 X125.554 Y142.944 E4.7170
G1 X127.793 Y141.376 E4.7866
G92 E0
G1 E-2.6000 F6000
G1 X125.719 Y173.484 F10000
G1 E0.0000 F6000
G92 E0
G1 X125.887 Y173.523 E0.0044 F1620
G1 X128.788 Y174.355 E0.0812
G1 X129.109 Y174.484 E0.0901
G1 X131.851 Y175.942 E0.1691
G1 X132.138 Y176.136 E0.1780
G1 X134.518 Y178.132 E0.2571
G1 X134.758 Y178.381 E0.2659
G1 X136.670 Y180.829 E0.3450
G1 X136.854 Y181.122 E0.3538
G1 X138.176 Y183.835 E0.4306
G1 X138.244 Y183.994 E0.4350
G1 X147.542 Y209.539 E1.1273
G1 X148.461 Y211.344 E1.1789
G1 X149.658 Y212.720 E1.2253
G1 X151.148 Y213.764 E1.2716
G1 X152.851 Y214.417 E1.3181
G1 X154.861 Y214.664 E1.3696
G1 X176.126 Y214.664 E1.9111
G1 X178.059 Y216.597 E1.9808
G1 X178.059 Y221.731 E2.1115
G1 X176.126 Y223.664 E2.1811
G1 X154.558 Y223.664 E2.7303
G1 X154.356 Y223.652 E2.7355
G1 X150.863 Y223.223 E2.8251
G1 X150.472 Y223.125 E2.8354
G1 X147.090 Y221.827 E2.9276
G1 X146.733 Y221.637 E2.9379
G1 X143.769 Y219.562 E3.0300
G1 X143.469 Y219.291 E3.0403
G1 X141.092 Y216.557 E3.1326
G1 X140.867 Y216.223 E3.1428
G1 X139.269 Y213.087 E3.2325
G1 X139.188 Y212.902 E3.2376
G1 X129.890 Y187.356 E3.9299
G1 X128.889 Y185.433 E3.9851
G1 X127.571 Y183.995 E4.0348
G1 X125.926 Y182.947 E4.0844
G1 X123.858 Y182.295 E4.1396
G1 X116.717 Y181.035 E4.3243
G1 X115.149 Y178.796 E4.3939
G1 X116.041 Y173.740 E4.5246
G1 X118.280 Y172.172 E4.5942
G1 X125.719 Y173.484 E4.7866
G92 E0
G1 E-2.6000 F6000
G1 X115.535 Y210.474 F10000
G1 E0.0000 F6000
G92 E0
G1 X118.436 Y211.306 E0.0768 F1620
G1 X118.757 Y211.436 E0.0857
G1 X121.499 Y212.894 E0.1647
G1 X121.786 Y213.087 E0.1736
G1 X124.166 Y215.084 E0.2527
G1 X124.406 Y215.333 E0.2615
G1 X126.318 Y217.781 E0.3406
G1 X126.501 Y218.074 E0.3494
G1 X127.824 Y220.786 E0.4262
G1 X127.892 Y220.945 E0.4306
G1 X137.190 Y246.491 E1.1229
G1 X138.109 Y248.295 E1.1744
G1 X139.305 Y249.671 E1.2209
G1 X140.796 Y250.715 E1.2672
G1 X142.498 Y251.369 E1.3137
G1 X144.508 Y251.616 E1.3652
G1 X165.773 Y251.616 E1.9067
G1 X167.706 Y253.549 E1.9764
G1 X167.706 Y258.683 E2.1071
G1 X165.773 Y260.616 E2.1767
G1 X144.205 Y260.616 E2.7259
G1 X144.004 Y260.603 E2.7311
G1 X140.511 Y260.174 E2.8207
G1 X140.119 Y260.077 E2.8310
G1 X136.737 Y258.779 E2.9232
G1 X136.381 Y258.589 E2.9335
G1 X133.417 Y256.513 E3.0256
G1 X133.117 Y256.243 E3.0359
G1 X130.740 Y253.509 E3.1282
G1 X130.514 Y253.175 E3.1384
G1 X128.916 Y250.039 E3.2281
G1 X128.836 Y249.854 E3.2332
G1 X119.538 Y224.308 E3.9255
G1 X118.536 Y222.385 E3.9807
G1 X117.219 Y220.946 E4.0304
G1 X115.574 Y219.899 E4.0800
G1 X113.506 Y219.246 E4.1352
G1 X106.365 Y217.987 E4.3199
G1 X104.797 Y215.748 E4.3895
G1 X105.689 Y210.692 E4.5202
G1 X107.928 Y209.124 E4.5898
G1 X115.367 Y210.436 E4.7822
G1 X115.535 Y210.474 E4.7866
G92 E0
G1 E-2.6000 F6000
G1 X161.681 Y230.277 F10000
G1 E0.0000 F6000
G92 E0
G1 X163.920 Y228.709 E0.0696 F1620
G1 X171.359 Y230.021 E0.2620
G1 X171.527 Y230.060 E0.2664
G1 X174.428 Y230.892 E0.3432
G1 X174.749 Y231.021 E0.3520
G1 X177.491 Y232.479 E0.4311
G1 X177.778 Y232.673 E0.4399
G1 X180.158 Y234.670 E0.5190
G1 X180.398 Y234.918 E0.5278
G1 X182.310 Y237.366 E0.6069
G1 X182.494 Y237.659 E0.6157
G1 X183.816 Y240.372 E0.6926
G1 X183.884 Y240.531 E0.6970
G1 X193.182 Y266.077 E1.3892
G1 X194.101 Y267.881 E1.4408
G1 X195.298 Y269.257 E1.4872
G1 X196.788 Y270.301 E1.5336
G1 X198.491 Y270.954 E1.5800
G1 X200.501 Y271.201 E1.6316
G1 X221.766 Y271.201 E2.1731
G1 X223.699 Y273.134 E2.2427
G1 X223.699 Y278.268 E2.3734
G1 X221.766 Y280.201 E2.4431
G1 X200.198 Y280.201 E2.9923
G1 X199.996 Y280.189 E2.9974
G1 X196.503 Y279.760 E3.0870
G1 X196.112 Y279.662 E3.0973
G1 X192.730 Y278.364 E3.1896
G1 X192.373 Y278.174 E3.1998
G1 X189.409 Y276.099 E3.2920
G1 X189.109 Y275.829 E3.3023
G1 X186.732 Y273.095 E3.3945
G1 X186.507 Y272.760 E3.4048
G1 X184.909 Y269.624 E3.4944
G1 X184.828 Y269.439 E3.4996
G1 X175.530 Y243.893 E4.1918
G1 X174.529 Y241.970 E4.2470
G1 X173.211 Y240.532 E4.2967
G1 X171.566 Y239.484 E4.3464
G1 X169.498 Y238.832 E4.4016
G1 X162.357 Y237.573 E4.5862
G1 X160.789 Y235.333 E4.6559
G1 X161.681 Y230.277 E4.7866
G92 E0
G1 E-2.6000 F6000
G1 X174.948 Y207.056 F10000
G1 E0.0000 F6000
G92 E0
G1 X173.380 Y204.817 E0.0696 F1620
G1 X174.272 Y199.761 E0.2003
G1 X176.511 Y198.193 E0.2700
G1 X183.950 Y199.504 E0.4623
G1 X184.118 Y199.543 E0.4667
G1 X187.019 Y200.375 E0.5436
G1 X187.339 Y200.505 E0.5524
G1 X190.082 Y201.963 E0.6315
G1 X190.369 Y202.156 E0.6403
G1 X192.748 Y204.153 E0.7194
G1 X192.989 Y204.402 E0.7282
G1 X194.901 Y206.849 E0.8073
G1 X195.084 Y207.143 E0.8161
G1 X196.407 Y209.855 E0.8929
G1 X196.475 Y210.014 E0.8973
G1 X205.773 Y235.560 E1.5896
G1 X206.692 Y237.364 E1.6412
G1 X207.888 Y238.740 E1.6876
G1 X209.379 Y239.784 E1.7339
G1 X211.081 Y240.438 E1.7804
G1 X213.091 Y240.685 E1.8319
G1 X234.356 Y240.685 E2.3734
G1 X236.289 Y242.618 E2.4431
G1 X236.289 Y247.751 E2.5738
G1 X234.356 Y249.685 E2.6434
G1 X212.788 Y249.685 E3.1926
G1 X212.587 Y249.672 E3.1978
G1 X209.094 Y249.243 E3.2874
G1 X208.702 Y249.145 E3.2977
G1 X205.320 Y247.847 E3.3899
G1 X204.964 Y247.658 E3.4002
G1 X201.999 Y245.582 E3.4923
G1 X201.699 Y245.312 E3.5026
G1 X199.323 Y242.578 E3.5949
G1 X199.097 Y242.243 E3.6051
G1 X197.499 Y239.108 E3.6948
G1 X197.419 Y238.923 E3.6999
G1 X188.121 Y213.377 E4.3922
G1 X187.119 Y211.453 E4.4474
G1 X185.802 Y210.015 E4.4971
G1 X184.157 Y208.967 E4.5467
G1 X182.088 Y208.315 E4.6020
G1 X174.948 Y207.056 E4.7866
G92 E0
G1 E-2.6000 F6000
G1 X206.092 Y207.847 F10000
G1 E0.0000 F6000
G92 E0
G1 X196.794 Y182.301 E0.6923 F1620
G1 X195.793 Y180.377 E0.7475
G1 X194.475 Y178.939 E0.7972
G1 X192.830 Y177.891 E0.8468
G1 X190.762 Y177.239 E0.9021
G1 X183.622 Y175.980 E1.0867
G1 X182.054 Y173.741 E1.1563
G1 X182.945 Y168.685 E1.2870
G1 X185.184 Y167.117 E1.3566
G1 X192.623 Y168.428 E1.5490
G1 X192.791 Y168.467 E1.5534
G1 X195.692 Y169.299 E1.6302
G1 X196.013 Y169.429 E1.6390
G1 X198.755 Y170.887 E1.7181
G1 X199.042 Y171.080 E1.7269
G1 X201.422 Y173.077 E1.8061
G1 X201.662 Y173.326 E1.8149
G1 X203.574 Y175.773 E1.8940
G1 X203.758 Y176.067 E1.9028
G1 X205.081 Y178.779 E1.9796
G1 X205.148 Y178.938 E1.9840
G1 X214.446 Y204.484 E2.6763
G1 X215.365 Y206.288 E2.7278
G1 X216.562 Y207.664 E2.7743
G1 X218.053 Y208.708 E2.8206
G1 X219.755 Y209.362 E2.8671
G1 X221.765 Y209.608 E2.9186
G1 X243.030 Y209.608 E3.4601
G1 X244.963 Y211.542 E3.5297
G1 X244.963 Y216.675 E3.6605
G1 X243.030 Y218.608 E3.7301
G1 X221.462 Y218.608 E4.2793
G1 X221.261 Y218.596 E4.2844
G1 X217.767 Y218.167 E4.3741
G1 X217.376 Y218.069 E4.3843
G1 X213.994 Y216.771 E4.4766
G1 X213.637 Y216.582 E4.4869
G1 X210.673 Y214.506 E4.5790
G1 X210.373 Y214.236 E4.5893
G1 X207.996 Y211.502 E4.6816
G1 X207.771 Y211.167 E4.6918
G1 X206.173 Y208.032 E4.7815
G1 X206.092 Y207.847 E4.7866
G92 E0
G1 E-2.6000 F6000
G1 X219.030 Y182.897 F10000
G1 E0.0000 F6000
G92 E0
G1 X218.674 Y182.708 E0.0103 F1620
G1 X215.709 Y180.632 E0.1024
G1 X215.409 Y180.362 E0.1127
G1 X213.033 Y177.628 E0.2050
G1 X212.807 Y177.293 E0.2152
G1 X211.209 Y174.157 E0.3049
G1 X211.129 Y173.972 E0.3100
G1 X201.831 Y148.427 E1.0023
G1 X200.829 Y146.503 E1.0575
G1 X199.512 Y145.065 E1.1072
G1 X197.867 Y144.017 E1.1568
G1 X195.798 Y143.365 E1.2120
G1 X188.658 Y142.106 E1.3967
G1 X187.090 Y139.866 E1.4663
G1 X187.981 Y134.811 E1.5970
G1 X190.221 Y133.243 E1.6666
G1 X197.659 Y134.554 E1.8590
G1 X197.828 Y134.593 E1.8634
G1 X200.729 Y135.425 E1.9402
G1 X201.049 Y135.554 E1.9490
G1 X203.792 Y137.013 E2.0281
G1 X204.078 Y137.206 E2.0369
G1 X206.458 Y139.203 E2.1160
G1 X206.699 Y139.452 E2.1249
G1 X208.611 Y141.899 E2.2040
G1 X208.794 Y142.193 E2.2128
G1 X210.117 Y144.905 E2.2896
G1 X210.184 Y145.064 E2.2940
G1 X219.482 Y170.610 E2.9863
G1 X220.402 Y172.414 E3.0378
G1 X221.598 Y173.790 E3.0843
G1 X223.089 Y174.834 E3.1306
G1 X224.791 Y175.487 E3.1771
G1 X226.801 Y175.734 E3.2286
G1 X248.066 Y175.734 E3.7701
G1 X249.999 Y177.667 E3.8397
G1 X249.999 Y182.801 E3.9705
G1 X248.066 Y184.734 E4.0401
G1 X226.498 Y184.734 E4.5893
G1 X226.297 Y184.722 E4.5944
G1 X222.804 Y184.293 E4.6841
G1 X222.412 Y184.195 E4.6943
G1 X219.030 Y182.897 E4.7866
G1 X219.279 Y182.350 F10000
G92 E0
